src/pos-icons/cloud-braces.svg

<svg height="24" viewBox="0 0 24 24" width="24" xmlns="http://www.w3.org/2000/svg"><path d="m6 20a6 6 0 0 1 -6-6c0-3.09 2.34-5.64 5.35-5.96 1.25-2.4 3.76-4.04 6.65-4.04 3.63 0 6.66 2.58 7.35 6 2.6.19 4.65 2.36 4.65 5a5 5 0 0 1 -5 5zm12.5-8h-.5a1 1 0 0 1 -1-1v-1a2 2 0 0 0 -2-2h-1.5v2h1.5v1a2 2 0 0 0 2 2 2 2 0 0 0 -2 2v1h-1.5v2h1.5a2 2 0 0 0 2-2v-1a1 1 0 0 1 1-1h.5zm-13 0v2h.5a1 1 0 0 1 1 1v1a2 2 0 0 0 2 2h1.5v-2h-1.5v-1a2 2 0 0 0 -2-2 2 2 0 0 0 2-2v-1h1.5v-2h-1.5a2 2 0 0 0 -2 2v1a1 1 0 0 1 -1 1z"/></svg>

<?xml version="1.0" encoding="UTF-8"?><!DOCTYPE svg PUBLIC "-//W3C//DTD SVG 1.1//EN" "http://www.w3.org/Graphics/SVG/1.1/DTD/svg11.dtd"><svg xmlns="http://www.w3.org/2000/svg" xmlns:xlink="http://www.w3.org/1999/xlink" version="1.1" id="mdi-cloud-braces" width="24" height="24" viewBox="0 0 24 24"><path d="M6,20A6,6 0 0,1 0,14C0,10.91 2.34,8.36 5.35,8.04C6.6,5.64 9.11,4 12,4C15.63,4 18.66,6.58 19.35,10C21.95,10.19 24,12.36 24,15A5,5 0 0,1 19,20H6M18.5,12H18A1,1 0 0,1 17,11V10A2,2 0 0,0 15,8H13.5V10H15V11A2,2 0 0,0 17,13A2,2 0 0,0 15,15V16H13.5V18H15A2,2 0 0,0 17,16V15A1,1 0 0,1 18,14H18.5V12M5.5,12V14H6A1,1 0 0,1 7,15V16A2,2 0 0,0 9,18H10.5V16H9V15A2,2 0 0,0 7,13A2,2 0 0,0 9,11V10H10.5V8H9A2,2 0 0,0 7,10V11A1,1 0 0,1 6,12H5.5Z" /></svg>
